static/logos/hyperping-wordmark-color.svg

<svg width="100" height="17" viewBox="0 0 100 17" fill="none" xmlns="http://www.w3.org/2000/svg">
<g clip-path="url(#clip0_1_2410)">
<path d="M22.0092 12.4862V7.79735C22.0092 7.07955 22.183 6.54121 22.5309 6.1823C22.8787 5.8234 23.3425 5.64396 23.9222 5.64396C24.4439 5.64396 24.8613 5.79735 25.1743 6.10416C25.4873 6.41096 25.6439 6.85379 25.6439 7.43266V12.4862H27.8873V7.1548C27.8873 6.03179 27.5773 5.15192 26.9569 4.51516C26.3366 3.87841 25.5512 3.56003 24.6005 3.56003C23.4178 3.56003 22.554 3.96523 22.0092 4.77566V0.329954H19.7656V12.4862H22.0092ZM29.9222 15.9594C31.0352 16.0172 31.9656 15.7654 32.7135 15.204C33.4613 14.6424 34.0613 13.7366 34.5135 12.4862L37.6787 3.80316H35.2787L33.3483 9.6381L31.0874 3.80316H28.6352L32.2005 12.2083C31.9917 12.7988 31.7105 13.2272 31.3569 13.4934C31.0034 13.7597 30.5251 13.8871 29.9222 13.8754V15.9594ZM40.983 15.9594V11.4616C41.6439 12.3067 42.583 12.7293 43.8005 12.7293C44.9714 12.7293 45.9714 12.2865 46.8005 11.4008C47.6295 10.5151 48.0439 9.42974 48.0439 8.14466C48.0439 6.85958 47.6295 5.7742 46.8005 4.88853C45.9714 4.00287 44.9714 3.56003 43.8005 3.56003C42.583 3.56003 41.6439 3.9826 40.983 4.82775V3.80316H38.7396V15.9594H40.983ZM43.383 10.5933C42.6873 10.5933 42.1135 10.3675 41.6613 9.91603C41.2092 9.45293 40.983 8.86241 40.983 8.14466C40.983 7.42687 41.2092 6.83931 41.6613 6.38201C42.1135 5.92472 42.6873 5.69605 43.383 5.69605C44.0787 5.69605 44.6555 5.92472 45.1135 6.38201C45.5714 6.83931 45.8005 7.42687 45.8005 8.14466C45.8005 8.86241 45.5714 9.45 45.1135 9.90733C44.6555 10.3646 44.0787 10.5933 43.383 10.5933ZM53.9396 12.7293C55.6092 12.7293 56.873 12.1099 57.7309 10.8711L55.9222 9.82914C55.4817 10.408 54.8323 10.6975 53.9743 10.6975C52.641 10.6975 51.8236 10.1534 51.5222 9.06509H58.0787C58.1366 8.74086 58.1656 8.4341 58.1656 8.14466C58.1656 6.84799 57.7512 5.75973 56.9222 4.87985C56.0931 3.99997 55.041 3.56003 53.7656 3.56003C52.4208 3.56003 51.3192 3.99709 50.4613 4.87116C49.6034 5.74525 49.1743 6.83643 49.1743 8.14466C49.1743 9.46448 49.6092 10.5585 50.4787 11.4268C51.3483 12.2952 52.5018 12.7293 53.9396 12.7293ZM55.9222 7.32846H51.4873C51.6148 6.77275 51.8757 6.3415 52.27 6.03469C52.6642 5.72789 53.1627 5.57449 53.7656 5.57449C54.2757 5.57449 54.7309 5.7192 55.1309 6.00864C55.5309 6.29809 55.7947 6.73802 55.9222 7.32846ZM61.9743 12.4862V8.33569C61.9743 7.50212 62.2439 6.9059 62.783 6.54699C63.3222 6.18809 63.9338 6.04916 64.6178 6.13021V3.6295C64.0265 3.6295 63.4904 3.76842 63.0092 4.04628C62.5279 4.32414 62.183 4.74092 61.9743 5.29664V3.80316H59.7309V12.4862H61.9743ZM68.1656 15.9594V11.4616C68.8265 12.3067 69.7656 12.7293 70.983 12.7293C72.154 12.7293 73.154 12.2865 73.983 11.4008C74.8121 10.5151 75.2265 9.42974 75.2265 8.14466C75.2265 6.85958 74.8121 5.7742 73.983 4.88853C73.154 4.00287 72.154 3.56003 70.983 3.56003C69.7656 3.56003 68.8265 3.9826 68.1656 4.82775V3.80316H65.9222V15.9594H68.1656ZM70.5656 10.5933C69.87 10.5933 69.2961 10.3675 68.8439 9.91603C68.3917 9.45293 68.1656 8.86241 68.1656 8.14466C68.1656 7.42687 68.3917 6.83931 68.8439 6.38201C69.2961 5.92472 69.87 5.69605 70.5656 5.69605C71.2613 5.69605 71.8382 5.92472 72.2961 6.38201C72.754 6.83931 72.983 7.42687 72.983 8.14466C72.983 8.86241 72.754 9.45 72.2961 9.90733C71.8382 10.3646 71.2613 10.5933 70.5656 10.5933ZM77.9222 2.7612C78.3048 2.7612 78.6323 2.62517 78.9048 2.35309C79.1773 2.08102 79.3135 1.75976 79.3135 1.38928C79.3135 1.01881 79.1773 0.694641 78.9048 0.416784C78.6323 0.138928 78.3048 0 77.9222 0C77.5512 0 77.2295 0.138928 76.9569 0.416784C76.6844 0.694641 76.5483 1.01881 76.5483 1.38928C76.5483 1.75976 76.6844 2.08102 76.9569 2.35309C77.2295 2.62517 77.5512 2.7612 77.9222 2.7612ZM79.0526 12.4862V3.80316H76.8092V12.4862H79.0526ZM83.3482 12.4862V7.79735C83.3482 7.07955 83.5222 6.54121 83.87 6.1823C84.2178 5.8234 84.6817 5.64396 85.2613 5.64396C85.783 5.64396 86.2004 5.79735 86.5131 6.10416C86.8269 6.41096 86.983 6.85379 86.983 7.43266V12.4862H89.2269V7.1548C89.2269 6.03179 88.9166 5.15192 88.2959 4.51516C87.6761 3.87841 86.8907 3.56003 85.9396 3.56003C84.7569 3.56003 83.8931 3.96523 83.3482 4.77566V3.80316H81.1048V12.4862H83.3482ZM95.4528 16.2025C96.7045 16.2025 97.7743 15.8494 98.6614 15.1432C99.5485 14.437 99.9916 13.4123 99.9916 12.0694V3.80316H97.8002V4.87985C97.1398 3.99997 96.2123 3.56003 95.0174 3.56003C93.8002 3.56003 92.7743 3.99418 91.9399 4.86248C91.1045 5.73078 90.6873 6.77853 90.6873 8.00573C90.6873 9.24448 91.1019 10.2952 91.9312 11.1577C92.7597 12.0202 93.789 12.4515 95.0174 12.4515C96.2123 12.4515 97.1398 12.0115 97.8002 11.1316V12.0694C97.8002 12.7524 97.5976 13.2792 97.1916 13.6497C96.7864 14.0202 96.2295 14.2054 95.5217 14.2054C94.4442 14.2054 93.6847 13.8002 93.2442 12.9897L91.3312 14.0839C91.7131 14.7784 92.2614 15.3053 92.9743 15.6641C93.6873 16.023 94.5131 16.2025 95.4528 16.2025ZM95.3657 10.3849C94.658 10.3849 94.0726 10.1649 93.6088 9.725C93.1571 9.27345 92.9312 8.70035 92.9312 8.00573C92.9312 7.32268 93.1597 6.75828 93.6174 6.31254C94.0761 5.86681 94.658 5.64396 95.3657 5.64396C96.0726 5.64396 96.6554 5.86681 97.1131 6.31254C97.5717 6.75828 97.8002 7.32268 97.8002 8.00573C97.8002 8.70035 97.5717 9.27052 97.1131 9.71629C96.6554 10.162 96.0726 10.3849 95.3657 10.3849Z" fill="#11141D"/>
<path fill-rule="evenodd" clip-rule="evenodd" d="M4.30792 11.7253C4.78603 12.3718 5.79029 12.2724 6.12945 11.5449L7.66834 8.24404L9.75336 12.7564C10.1563 13.6286 11.4327 13.5547 11.73 12.642L13.7132 6.55521L14.3951 7.8763C14.6618 8.39309 15.3015 8.59811 15.8239 8.3342C16.3462 8.0703 16.5535 7.43741 16.2868 6.92059L14.4365 3.33579C14.0058 2.50148 12.7703 2.59965 12.4798 3.49128L10.5478 9.42124L8.63853 5.28927C8.26107 4.4723 7.08856 4.47032 6.70828 5.28605L4.95658 9.04339L3.93622 7.66354C3.52237 7.10384 2.68365 7.08732 2.24759 7.63024L0.230579 10.1416C-0.134317 10.5959 -0.0578525 11.2568 0.401367 11.6179C0.860589 11.9789 1.52866 11.9033 1.89356 11.4489L3.04419 10.0162L4.30792 11.7253Z" fill="#11141D"/>
</g>
<defs>
<clipPath id="clip0_1_2410">
<rect width="100" height="16.3793" fill="white"/>
</clipPath>
</defs>
</svg>

<svg xmlns="http://www.w3.org/2000/svg" width="376.471" height="64" fill="none" viewBox="0 0 100 17"><g fill="#11141D" clip-path="url(#a)"><path d="M22.01 12.486V7.797c0-.717.173-1.256.52-1.615.349-.359.813-.538 1.392-.538.522 0 .94.153 1.252.46.313.307.47.75.47 1.329v5.053h2.243V7.155c0-1.123-.31-2.003-.93-2.64-.62-.637-1.406-.955-2.357-.955-1.182 0-2.046.405-2.59 1.216V.33h-2.244v12.156h2.243Zm7.912 3.473c1.113.058 2.044-.194 2.792-.755.747-.562 1.347-1.467 1.8-2.718l3.165-8.683h-2.4l-1.93 5.835-2.262-5.835h-2.452l3.565 8.405c-.208.59-.49 1.02-.843 1.285-.354.267-.832.394-1.435.382v2.084Zm11.061 0v-4.497c.66.845 1.6 1.267 2.818 1.267 1.17 0 2.17-.442 3-1.328.828-.886 1.243-1.971 1.243-3.256 0-1.285-.414-2.37-1.243-3.256-.83-.886-1.83-1.329-3-1.329-1.218 0-2.157.423-2.818 1.268V3.803H38.74V15.96h2.243Zm2.4-5.366c-.696 0-1.27-.226-1.722-.677-.452-.463-.678-1.054-.678-1.771 0-.718.226-1.306.678-1.763.453-.457 1.026-.686 1.722-.686s1.273.229 1.73.686c.458.457.688 1.045.688 1.763 0 .717-.23 1.305-.688 1.762-.457.458-1.034.686-1.73.686ZM53.94 12.73c1.67 0 2.933-.62 3.79-1.858L55.923 9.83c-.44.579-1.09.868-1.948.868-1.333 0-2.15-.544-2.452-1.632h6.557c.058-.324.087-.63.087-.92 0-1.297-.415-2.385-1.244-3.265-.829-.88-1.881-1.32-3.156-1.32-1.345 0-2.447.437-3.305 1.311-.858.874-1.287 1.965-1.287 3.274 0 1.32.435 2.414 1.305 3.282.87.868 2.023 1.302 3.46 1.302Zm1.982-5.4h-4.435c.128-.556.389-.987.783-1.294.394-.307.893-.46 1.496-.46.51 0 .965.144 1.365.434.4.29.664.729.791 1.32Zm6.052 5.157v-4.15c0-.834.27-1.43.809-1.789.54-.359 1.15-.498 1.835-.417v-2.5c-.591 0-1.128.138-1.609.416-.481.278-.826.695-1.035 1.25V3.804h-2.243v8.683h2.243Zm6.192 3.473v-4.497c.66.845 1.6 1.267 2.817 1.267 1.171 0 2.171-.442 3-1.328.83-.886 1.243-1.971 1.243-3.256 0-1.285-.414-2.37-1.243-3.256-.829-.886-1.829-1.329-3-1.329-1.217 0-2.157.423-2.817 1.268V3.803h-2.244V15.96h2.244Zm2.4-5.366c-.696 0-1.27-.226-1.722-.677-.452-.463-.678-1.054-.678-1.771 0-.718.226-1.306.678-1.763.452-.457 1.026-.686 1.722-.686.695 0 1.272.229 1.73.686.458.457.687 1.045.687 1.763 0 .717-.229 1.305-.687 1.762-.458.458-1.035.686-1.73.686Zm7.356-7.832c.383 0 .71-.136.983-.408.272-.272.409-.593.409-.964 0-.37-.137-.694-.41-.972A1.327 1.327 0 0 0 77.923 0c-.37 0-.692.139-.965.417a1.345 1.345 0 0 0-.409.972c0 .37.136.692.409.964.273.272.594.408.965.408Zm1.13 9.725V3.803H76.81v8.683h2.244Zm4.296 0V7.797c0-.717.174-1.256.522-1.615.348-.359.812-.538 1.391-.538.522 0 .94.153 1.252.46.314.307.47.75.47 1.329v5.053h2.244V7.155c0-1.123-.31-2.003-.931-2.64-.62-.637-1.405-.955-2.356-.955-1.183 0-2.047.405-2.592 1.216v-.973h-2.243v8.683h2.243Zm12.105 3.716c1.251 0 2.321-.353 3.208-1.059.888-.706 1.33-1.73 1.33-3.074V3.803h-2.19V4.88c-.661-.88-1.589-1.32-2.784-1.32-1.217 0-2.243.434-3.077 1.302-.835.869-1.253 1.917-1.253 3.144 0 1.238.415 2.29 1.244 3.152.829.862 1.858 1.293 3.086 1.293 1.195 0 2.123-.44 2.783-1.32v.938c0 .683-.202 1.21-.608 1.58-.406.371-.962.556-1.67.556-1.078 0-1.837-.405-2.278-1.215l-1.913 1.094c.382.694.93 1.221 1.643 1.58s1.54.539 2.479.539Zm-.087-5.817c-.708 0-1.293-.22-1.757-.66-.452-.452-.678-1.025-.678-1.72 0-.682.229-1.247.686-1.692.46-.446 1.041-.669 1.749-.669.707 0 1.29.223 1.747.669.459.445.687 1.01.687 1.693 0 .694-.228 1.265-.687 1.71-.458.446-1.04.669-1.747.669Z"/><path fill-rule="evenodd" d="M4.308 11.725a1.068 1.068 0 0 0 1.821-.18l1.54-3.301 2.084 4.512c.403.873 1.68.799 1.977-.114l1.983-6.087.682 1.321c.267.517.907.722 1.429.458.522-.264.73-.897.463-1.413l-1.85-3.585c-.431-.835-1.667-.736-1.957.155l-1.932 5.93-1.91-4.132c-.377-.817-1.55-.819-1.93-.003L4.957 9.043l-1.02-1.38a1.069 1.069 0 0 0-1.69-.033L.232 10.142a1.043 1.043 0 0 0 .17 1.476 1.07 1.07 0 0 0 1.493-.17l1.15-1.432 1.264 1.71Z" clip-rule="evenodd"/></g><defs><clipPath id="a"><path fill="#fff" d="M0 0h100v16.379H0z"/></clipPath></defs></svg>
